img/tecnologias/html.svg

<svg width="81" height="81" viewBox="0 0 81 81" fill="none" xmlns="http://www.w3.org/2000/svg">
<path d="M18 16L21.8636 45.3392L39.201 48.585L56.5863 45.3428L60.4538 16H18ZM52.4176 22.9463L52.1755 24.8235L52.0689 25.6844H31.7314L32.2168 29.3487H51.5855L51.4557 30.2572L50.2072 39.711L50.1153 40.3051L39.2269 42.3334L39.2138 42.3386L28.3327 40.3957L27.594 34.8453H32.9289L33.3069 37.7032L39.2103 38.7713H39.2269V38.6284L45.1565 37.6142L45.7759 33.0131H27.3565L26.0501 23.0363L25.923 22.02H52.5451L52.4176 22.9463Z" fill="#081546"/>
<path d="M26.4287 66V60.755H21.1334V66H19.3987V54.8118H21.1334V59.4884H26.4287V54.8118H28.1633V66H26.4287Z" fill="#404040"/>
<path d="M39.2413 54.8118L39.0587 56.1271H35.5711V66H33.8364V56.1271H30.2575V54.8118H39.2413Z" fill="#404040"/>
<path d="M52.1339 66H50.454L50.0158 60.9499C49.8332 58.9688 49.7297 57.4478 49.7054 56.3869L46.9847 64.7334H45.3596L42.4928 56.3706C42.4928 57.7238 42.4137 59.2881 42.2554 61.0635L41.8354 66H40.1921L41.2329 54.8118H43.5701L46.2178 62.9472L48.7376 54.8118H51.0931L52.1339 66Z" fill="#404040"/>
<path d="M56.8325 54.8118V64.6522H62L61.7991 66H55.0978V54.8118H56.8325Z" fill="#404040"/>
</svg>

<svg width="81" height="81" fill="none" xmlns="http://www.w3.org/2000/svg"><path d="m18 16 3.864 29.34L39.2 48.584l17.385-3.242L60.454 16H18Zm34.418 6.946-.242 1.877-.107.861H31.73l.486 3.665h19.369l-.13.908-1.249 9.454-.092.594-10.888 2.028-.013.006-10.881-1.943-.739-5.55h5.335l.378 2.857 5.903 1.068h.017v-.143l5.93-1.014.619-4.6h-18.42l-1.306-9.978-.127-1.016h26.622l-.127.926Z" fill="#081546"/><path d="M26.429 66v-5.245h-5.296V66H19.4V54.812h1.734v4.676h5.296v-4.676h1.734V66H26.43ZM39.241 54.812l-.182 1.315H35.57V66h-1.735v-9.873h-3.578v-1.315h8.983ZM52.134 66h-1.68l-.438-5.05c-.183-1.981-.286-3.502-.31-4.563l-2.721 8.346H45.36l-2.867-8.362c0 1.353-.08 2.917-.238 4.692L41.835 66h-1.643l1.04-11.188h2.338l2.648 8.135 2.52-8.135h2.355L52.133 66ZM56.833 54.812v9.84H62L61.8 66h-6.702V54.812h1.735Z" fill="#404040"/></svg>
